X:58
T:Merrily Kiss The Quaker
S:The Session: https://thesession.org/tunes/70#setting55365
C:Traditional
R:slide
K:G
M:6/8
L:1/8
Q:1/4=150
D|:"G"GAB D2B|"C"c2A "D"BGE|"G"GAB DEG|"D"A3 AGE|
|"G"GAB D2B|"C"c2A "D"BGE|"G"GAB "D"DEF|1 "G"G3 G2D:|2 "G"G3 G2A||
|:"G"BGG "D"AGG|"G"BGG "D"AGE|"G"GAB DEG|"D"A3 AGA|
|"G"BGG "D"AGG|"G"BGG "D"AGE|"G"GAB "D"AGF|1 "G"G3 G2A:|2 "G"G3 GBd||
|:"G"gfg "D"aga|"G"bge def|gfg gab|"D"a3 agf|
|"G"gag "D"fgf|"C"efe "G"dBA|"G"BAB "D"DEF|1 "G"G3 GBd:|2 "G"G3 G2D||

